packages/tokens/icons/dollarBill/size32Px.svg

<svg viewBox="0 0 32 32" fill="none" xmlns="http://www.w3.org/2000/svg" width="1em" height="1em"><path d="M2.5 10C2.5 9.17157 3.17157 8.5 4 8.5L28 8.5C28.8284 8.5 29.5 9.17157 29.5 10V23C29.5 23.8284 28.8284 24.5 28 24.5H4C3.17157 24.5 2.5 23.8284 2.5 23L2.5 10Z" stroke="currentColor"/><line x1="5.5" y1="10.5" x2="7.5" y2="10.5" stroke="currentColor" stroke-linecap="round"/><line x1="24.5" y1="22.5" x2="26.5" y2="22.5" stroke="currentColor" stroke-linecap="round"/><path d="M19.5 14.7V14.5C19.5 13.3954 18.6046 12.5 17.5 12.5H14.5C13.3954 12.5 12.5 13.3954 12.5 14.5C12.5 15.6046 13.3954 16.5 14.5 16.5H17.5C18.6046 16.5 19.5 17.3954 19.5 18.5C19.5 19.6046 18.6046 20.5 17.5 20.5H14.5C13.3954 20.5 12.5 19.6046 12.5 18.5V18.1M16 11L16 22" stroke="currentColor" stroke-linecap="round"/></svg>

<svg xmlns="http://www.w3.org/2000/svg" fill="none" viewBox="0 0 32 32" width="1em" height="1em"><path stroke="currentColor" d="M2.5 10A1.5 1.5 0 0 1 4 8.5h24a1.5 1.5 0 0 1 1.5 1.5v13a1.5 1.5 0 0 1-1.5 1.5H4A1.5 1.5 0 0 1 2.5 23V10Z"/><path stroke="currentColor" stroke-linecap="round" d="M5.5 10.5h2m17 12h2m-7-7.8v-.2a2 2 0 0 0-2-2h-3a2 2 0 1 0 0 4h3a2 2 0 1 1 0 4h-3a2 2 0 0 1-2-2v-.4M16 11v11"/></svg>
